X: 29857
T: O'er The Bows To Ballindalloch
R: strathspey
M: 4/4
K: Dmajor
|:d2 d>B A>G A<B|B<d d>B AG E2|B<d d>B A>G A<B|D>E G>A G<E D2:|
D2 A<B A>G A<B|D2 D>B AG E2|D2 D<B A<G A<B|D>E G>A G<E D2|
D2 D<B A>G A<B|D2 D>B AG E2|D2 D<B A<G A<B|D>E G>A G<E D2|

